docs/Widgets/org.openxtalk.hermann.colorpicker.1.0.2.svg

<?xml version="1.0" standalone="no"?><!DOCTYPE svg PUBLIC "-//W3C//DTD SVG 20010904//EN" "http://www.w3.org/TR/2001/REC-SVG-20010904/DTD/svg10.dtd"><svg version="1.0" xmlns="http://www.w3.org/2000/svg"preserveAspectRatio="xMidYMid meet"><path d="M0 63.500 C 0 127,0 127,130 127 C 260 127,260 127,260 63.500 C 260 0,260 0,130 0 C 0 0,0 0,0 63.500 M145 63 C 145 98,145 98,137.500 98 C 130 98,130 98,130 63 C 130 28,130 28,137.500 28 C 145 28,145 28,145 63 M63.327 34.750 C 63.572 35.163,64.085 38.247,64.467 41.604 C 65.162 47.707,65.162 47.707,58.331 48.375 C 47.733 49.410,41.224 51.819,36.313 56.524 C 32.202 60.464,32 60.928,32 66.446 C 32 71.806,32.278 72.512,35.750 75.964 C 40.441 80.629,48.491 83.689,58.442 84.591 C 66.080 85.283,66.080 85.283,65.485 89.892 C 64.166 100.121,65.093 99.362,54.695 98.715 C 34.026 97.427,19.607 88.679,15.034 74.651 C 13.377 69.568,14.125 59.510,16.533 54.500 C 20.606 46.024,31.302 38.576,43.721 35.567 C 49.961 34.055,62.602 33.528,63.327 34.750 M106.595 50.783 C 111.320 53.205,116.639 58.893,118.625 63.645 C 119.381 65.455,120 70.020,120 73.789 C 120 90.976,105.955 102.471,89.086 99.091 C 80.271 97.325,75.103 93.540,71.161 85.965 C 68.053 79.992,67.831 78.956,68.241 72.356 C 68.938 61.158,74.521 53.358,84.591 49.513 C 90.073 47.419,101.296 48.067,106.595 50.783 M192.595 50.783 C 197.320 53.205,202.639 58.893,204.625 63.645 C 205.381 65.455,206 70.020,206 73.789 C 206 90.976,191.955 102.471,175.086 99.091 C 166.271 97.325,161.103 93.540,157.161 85.965 C 154.053 79.992,153.831 78.956,154.241 72.356 C 154.938 61.158,160.521 53.358,170.591 49.513 C 176.073 47.419,187.296 48.067,192.595 50.783 M249.595 53.750 C 250.502 56.913,251.392 59.758,251.572 60.073 C 251.752 60.388,247.085 62.509,241.200 64.787 C 230.500 68.927,230.500 68.927,230.801 83.464 C 231.103 98,231.103 98,223.051 98 C 215 98,215 98,215 73.500 C 215 49,215 49,222.500 49 C 230 49,230 49,230 52 C 230 53.650,230.188 55,230.419 55 C 230.649 55,234.124 53.425,238.140 51.500 C 242.157 49.575,246.006 48,246.694 48 C 247.382 48,248.687 50.587,249.595 53.750 M89.244 61.495 C 81.531 67.057,82.476 83.949,90.674 87.066 C 99.332 90.358,106.997 80.129,104.056 69.207 C 103.461 66.997,102.188 64.218,101.227 63.032 C 98.885 60.140,92.295 59.294,89.244 61.495 M175.244 61.495 C 167.531 67.057,168.476 83.949,176.674 87.066 C 185.332 90.358,192.997 80.129,190.056 69.207 C 189.461 66.997,188.188 64.218,187.227 63.032 C 184.885 60.140,178.295 59.294,175.244 61.495 " /></svg>

<?xml version="1.0" encoding="utf-8"?>
<!-- Generator: Adobe Illustrator 26.5.0, SVG Export Plug-In . SVG Version: 6.00 Build 0)  -->
<svg version="1.1" id="Layer_1" xmlns="http://www.w3.org/2000/svg" xmlns:xlink="http://www.w3.org/1999/xlink" x="0px" y="0px"
	 viewBox="0 0 260 127" style="enable-background:new 0 0 260 127;" xml:space="preserve">
<path d="M0,63.5C0,127,0,127,130,127s130,0,130-63.5S260,0,130,0S0,0,0,63.5 M145,63c0,35,0,35-7.5,35s-7.5,0-7.5-35s0-35,7.5-35
	S145,28,145,63 M63.3,34.8c0.2,0.4,0.8,3.5,1.1,6.9c0.7,6.1,0.7,6.1-6.1,6.8c-10.6,1-17.1,3.4-22,8.1c-4.1,3.9-4.3,4.4-4.3,9.9
	c0,5.4,0.3,6.1,3.8,9.5c4.7,4.7,12.7,7.7,22.7,8.6c7.6,0.7,7.6,0.7,7,5.3c-1.3,10.2-0.4,9.5-10.8,8.8C34,97.4,19.6,88.7,15,74.7
	c-1.7-5.1-0.9-15.1,1.5-20.2c4.1-8.5,14.8-15.9,27.2-18.9C50,34.1,62.6,33.5,63.3,34.8 M106.6,50.8c4.7,2.4,10,8.1,12,12.9
	c0.8,1.8,1.4,6.4,1.4,10.1c0,17.2-14,28.7-30.9,25.3c-8.8-1.8-14-5.6-17.9-13.1c-3.1-6-3.3-7-2.9-13.6c0.7-11.2,6.3-19,16.4-22.8
	C90.1,47.4,101.3,48.1,106.6,50.8 M192.6,50.8c4.7,2.4,10,8.1,12,12.9c0.8,1.8,1.4,6.4,1.4,10.1c0,17.2-14,28.7-30.9,25.3
	c-8.8-1.8-14-5.6-17.9-13.1c-3.1-6-3.3-7-2.9-13.6c0.7-11.2,6.3-19,16.4-22.8C176.1,47.4,187.3,48.1,192.6,50.8 M249.6,53.8
	c0.9,3.2,1.8,6,2,6.3c0.2,0.3-4.5,2.4-10.4,4.7c-10.7,4.1-10.7,4.1-10.4,18.7c0.3,14.5,0.3,14.5-7.8,14.5c-8.1,0-8.1,0-8.1-24.5
	s0-24.5,7.5-24.5s7.5,0,7.5,3c0,1.7,0.2,3,0.4,3c0.2,0,3.7-1.6,7.7-3.5c4-1.9,7.9-3.5,8.6-3.5S248.7,50.6,249.6,53.8 M89.2,61.5
	c-7.7,5.6-6.8,22.5,1.4,25.6c8.7,3.3,16.3-6.9,13.4-17.9c-0.6-2.2-1.9-5-2.8-6.2C98.9,60.1,92.3,59.3,89.2,61.5 M175.2,61.5
	c-7.7,5.6-6.8,22.5,1.4,25.6c8.7,3.3,16.3-6.9,13.4-17.9c-0.6-2.2-1.9-5-2.8-6.2C184.9,60.1,178.3,59.3,175.2,61.5"/>
</svg>
